svg/600/outlined/4g_mobiledata-fill.svg

<svg xmlns="http://www.w3.org/2000/svg" width="48" height="48" viewBox="0 -960 960 960"><path d="M277.782-273.782v-123.217H106.999v-276.783H180V-470h97.782v-203.782h72.436V-470H429v73.001h-78.782v123.217h-72.436Zm575.219-232.566v160.13q0 29.838-20.819 51.137T781-273.782H563.001q-29.717 0-51.359-21.299Q490-316.38 490-346.218v-254.564q0-29.717 21.642-51.359 21.642-21.641 51.359-21.641H781q28.463 0 48.732 22.016 20.269 22.017 23.269 50.984h-290v254.564H781v-93.347h-96.782v-66.783h168.783Z"/></svg>

<svg xmlns="http://www.w3.org/2000/svg" width="48" height="48" viewBox="0 -960 960 960"><path d="M277.78-273.78V-397H107v-276.78h73V-470h97.78v-203.78h72.44V-470H429v73h-78.78v123.22h-72.44ZM853-506.35v160.13q0 29.84-20.82 51.14T781-273.78H563q-29.72 0-51.36-21.3T490-346.22v-254.56q0-29.72 21.64-51.36T563-673.78h218q28.46 0 48.73 22.01Q850-629.75 853-600.78H563v254.56h218v-93.34h-96.78v-66.79H853Z"/></svg>
